;FLAVOR:Marlin
;TIME:2734
;Filament used: 1.25683m
;Layer height: 0.1
;MINX:79.15
;MINY:79.149
;MINZ:0.15
;MAXX:120.848
;MAXY:120.85
;MAXZ:7.95
;Generated with Cura_SteamEngine 4.4.1
M140 S50
M105
M190 S50
M104 S200
M105
M109 S200
M82 ;absolute extrusion mode
G28 ;Home
G1 Z15.0 F6000 ;Move the platform down 15mm
;Prime the extruder
G92 E0
G1 F200 E3
G92 E0
G92 E0
G92 E0
G1 F1500 E-6.5
;LAYER_COUNT:79
;LAYER:0
M107 P1
G0 F3600 X81.078 Y80.677 Z0.15
;TYPE:SKIRT
G1 F1500 E0
G1 F1800 X81.61 Y80.248 E0.01279
G1 X82.189 Y79.884 E0.02558
G1 X82.807 Y79.59 E0.03838
G1 X83.454 Y79.37 E0.05117
G1 X84.123 Y79.227 E0.06397
G1 X84.846 Y79.161 E0.07755
G1 X85.166 Y79.152 E0.08354
G1 X85.329 Y79.15 E0.08659
G1 X95.611 Y79.149 E0.27895
G1 X114.205 Y79.15 E0.62683
G1 X114.29 Y79.151 E0.62842
G1 X114.977 Y79.161 E0.64127
G1 X115.659 Y79.211 E0.65407
G1 X116.331 Y79.34 E0.66687
G1 X116.982 Y79.546 E0.67964
G1 X117.606 Y79.828 E0.69245
G1 X118.192 Y80.18 E0.70524
G1 X118.733 Y80.598 E0.71803
G1 X119.222 Y81.076 E0.73083
G1 X119.651 Y81.608 E0.74361
G1 X120.016 Y82.187 E0.75642
G1 X120.31 Y82.804 E0.7692
G1 X120.531 Y83.451 E0.782
G1 X120.674 Y84.12 E0.79479
G1 X120.74 Y84.871 E0.8089
G1 X120.763 Y85.836 E0.82696
G1 X120.765 Y85.958 E0.82924
G1 X120.848 Y114.172 E1.35709
G1 X120.848 Y114.256 E1.35867
G1 X120.84 Y114.957 E1.37178
G1 X120.792 Y115.639 E1.38457
G1 X120.665 Y116.311 E1.39737
G1 X120.46 Y116.963 E1.41015
G1 X120.181 Y117.587 E1.42294
G1 X119.831 Y118.175 E1.43574
G1 X119.514 Y118.599 E1.44565
G1 X119.432 Y118.699 E1.44807
G1 X118.968 Y119.202 E1.46087
G1 X118.449 Y119.647 E1.47366
G1 X117.881 Y120.028 E1.48646
G1 X117.273 Y120.341 E1.49925
G1 X116.632 Y120.58 E1.51205
G1 X115.968 Y120.743 E1.52484
G1 X115.013 Y120.839 E1.5428
G1 X114.455 Y120.849 E1.55324
G1 X114.35 Y120.85 E1.5552
G1 X85.707 Y120.85 E2.09108
G1 X85.623 Y120.849 E2.09265
G1 X84.925 Y120.839 E2.10571
G1 X84.243 Y120.79 E2.11851
G1 X83.572 Y120.661 E2.13129
G1 X82.92 Y120.454 E2.14409
G1 X82.296 Y120.173 E2.15689
G1 X81.71 Y119.821 E2.16968
G1 X81.169 Y119.403 E2.18247
G1 X80.68 Y118.925 E2.19526
G1 X80.251 Y118.393 E2.20805
G1 X79.886 Y117.814 E2.22085
G1 X79.591 Y117.197 E2.23365
G1 X79.371 Y116.55 E2.24643
G1 X79.227 Y115.881 E2.25924
G1 X79.161 Y115.149 E2.27299
G1 X79.152 Y114.817 E2.2792
G1 X79.15 Y114.658 E2.28218
G1 X79.15 Y85.674 E2.82443
G1 X79.151 Y85.586 E2.82608
G1 X79.161 Y84.921 E2.83852
G1 X79.211 Y84.239 E2.85132
G1 X79.34 Y83.568 E2.8641
G1 X79.547 Y82.916 E2.8769
G1 X79.829 Y82.293 E2.88969
G1 X80.181 Y81.707 E2.90248
G1 X80.6 Y81.166 E2.91528
G1 X81.078 Y80.677 E2.92808
G0 F3600 X81.37 Y80.819
G1 F1800 X81.899 Y80.413 E2.94055
G1 X82.471 Y80.074 E2.95299
G1 X83.081 Y79.805 E2.96547
G1 X83.718 Y79.611 E2.97792
G1 X84.374 Y79.496 E2.99038
G1 X84.854 Y79.461 E2.99939
G1 X85.174 Y79.452 E3.00538
G1 X85.329 Y79.45 E3.00828
G1 X95.611 Y79.449 E3.20064
G1 X114.205 Y79.45 E3.54851
G1 X114.286 Y79.451 E3.55003
G1 X114.973 Y79.461 E3.56288
G1 X115.637 Y79.51 E3.57534
G1 X116.29 Y79.639 E3.58779
G1 X116.924 Y79.845 E3.60026
G1 X117.528 Y80.126 E3.61273
G1 X118.094 Y80.477 E3.62519
G1 X118.614 Y80.893 E3.63765
G1 X119.08 Y81.368 E3.65009
G1 X119.486 Y81.896 E3.66256
G1 X119.826 Y82.469 E3.67502
G1 X120.095 Y83.078 E3.68748
G1 X120.289 Y83.716 E3.69995
G1 X120.405 Y84.371 E3.7124
G1 X120.44 Y84.878 E3.72191
G1 X120.463 Y85.843 E3.73996
G1 X120.465 Y85.959 E3.74214
G1 X120.548 Y114.173 E4.26999
G1 X120.548 Y114.252 E4.27147
G1 X120.54 Y114.953 E4.28458
G1 X120.492 Y115.618 E4.29706
G1 X120.365 Y116.272 E4.30952
G1 X120.161 Y116.905 E4.32196
G1 X119.882 Y117.51 E4.33443
G1 X119.533 Y118.078 E4.3469
G1 X119.282 Y118.409 E4.35467
G1 X119.2 Y118.509 E4.35709
G1 X118.747 Y118.998 E4.36956
G1 X118.239 Y119.429 E4.38203
G1 X117.684 Y119.796 E4.39447
G1 X117.088 Y120.094 E4.40694
G1 X116.461 Y120.318 E4.4194
G1 X115.811 Y120.466 E4.43187
G1 X115.007 Y120.539 E4.44697
G1 X114.449 Y120.549 E4.45741
G1 X114.35 Y120.55 E4.45927
G1 X85.707 Y120.55 E4.99514
G1 X85.627 Y120.549 E4.99664
G1 X84.929 Y120.539 E5.0097
G1 X84.265 Y120.49 E5.02216
G1 X83.612 Y120.361 E5.03461
G1 X82.978 Y120.155 E5.04708
G1 X82.374 Y119.875 E5.05954
G1 X81.808 Y119.524 E5.072
G1 X81.288 Y119.108 E5.08445
G1 X80.822 Y118.633 E5.0969
G1 X80.415 Y118.105 E5.10938
G1 X80.075 Y117.532 E5.12184
G1 X79.806 Y116.923 E5.1343
G1 X79.612 Y116.286 E5.14676
G1 X79.496 Y115.63 E5.15922
G1 X79.461 Y115.14 E5.16841
G1 X79.452 Y114.808 E5.17462
G1 X79.45 Y114.658 E5.17743
G1 X79.45 Y85.674 E5.71969
G1 X79.451 Y85.591 E5.72124
G1 X79.461 Y84.926 E5.73368
G1 X79.511 Y84.261 E5.74616
G1 X79.64 Y83.608 E5.75861
G1 X79.846 Y82.975 E5.77107
G1 X80.127 Y82.371 E5.78353
G1 X80.478 Y81.805 E5.79599
G1 X80.895 Y81.285 E5.80846
G1 X81.37 Y80.819 E5.82091
G0 F3600 X81.662 Y80.965
G1 F1800 X82.186 Y80.584 E5.83303
G1 X82.752 Y80.269 E5.84515
G1 X83.353 Y80.027 E5.85727
G1 X83.979 Y79.861 E5.86939
G1 X84.862 Y79.761 E5.88601
G1 X85.182 Y79.752 E5.892
G1 X85.329 Y79.75 E5.89475
G1 X95.611 Y79.749 E6.08711
G1 X114.205 Y79.75 E6.43499
G1 X114.281 Y79.751 E6.43641
G1 X114.968 Y79.761 E6.44926
G1 X115.614 Y79.81 E6.46138
G1 X116.249 Y79.938 E6.4735
G1 X116.863 Y80.144 E6.48562
G1 X117.448 Y80.424 E6.49775
G1 X117.993 Y80.774 E6.50987
G1 X118.491 Y81.188 E6.52199
G1 X118.934 Y81.66 E6.5341
G1 X119.316 Y82.183 E6.54621
G1 X119.631 Y82.75 E6.55835
G1 X119.873 Y83.35 E6.57045
G1 X120.039 Y83.976 E6.58257
G1 X120.141 Y84.885 E6.59968
G1 X120.164 Y85.85 E6.61774
G1 X120.165 Y85.96 E6.6198
G1 X120.248 Y114.174 E7.14765
G1 X120.248 Y114.249 E7.14906
G1 X120.24 Y114.95 E7.16217
G1 X120.192 Y115.596 E7.17429
G1 X120.066 Y116.231 E7.1864
G1 X119.862 Y116.846 E7.19853
G1 X119.584 Y117.431 E7.21064
G1 X119.05 Y118.219 E7.22845
G1 X118.968 Y118.319 E7.23087
G1 X118.527 Y118.794 E7.243
G1 X118.031 Y119.21 E7.25511
G1 X117.487 Y119.563 E7.26724
G1 X116.905 Y119.846 E7.27935
G1 X116.291 Y120.054 E7.29148
G1 X115.657 Y120.186 E7.30359
G1 X115.002 Y120.239 E7.31589
G1 X114.444 Y120.249 E7.32633
G1 X114.35 Y120.25 E7.32809
G1 X85.707 Y120.25 E7.86396
G1 X85.632 Y120.249 E7.86537
G1 X84.934 Y120.239 E7.87843
G1 X84.288 Y120.19 E7.89055
G1 X83.653 Y120.062 E7.90267
G1 X83.039 Y119.856 E7.91478
G1 X82.454 Y119.577 E7.92691
G1 X81.909 Y119.227 E7.93903
G1 X81.411 Y118.813 E7.95114
G1 X80.967 Y118.341 E7.96327
G1 X80.586 Y117.818 E7.97537
G1 X80.271 Y117.251 E7.98751
G1 X80.029 Y116.651 E7.99961
G1 X79.862 Y116.025 E8.01173
G1 X79.761 Y115.132 E8.02855
G1 X79.752 Y114.8 E8.03476
G1 X79.75 Y114.658 E8.03742
G1 X79.75 Y85.674 E8.57967
G1 X79.751 Y85.595 E8.58115
G1 X79.761 Y84.93 E8.59359
G1 X79.81 Y84.284 E8.60572
G1 X79.939 Y83.649 E8.61784
G1 X80.145 Y83.035 E8.62995
G1 X80.425 Y82.451 E8.64207
G1 X80.775 Y81.906 E8.65419
G1 X81.189 Y81.408 E8.66631
G1 X81.662 Y80.965 E8.67843
G0 F3600 X81.484 Y81.535
G1 F1800 X81.953 Y81.116 E8.6902
G1 X82.471 Y80.76 E8.70196
G1 X83.03 Y80.472 E8.71372
G1 X83.622 Y80.258 E8.7255
G1 X84.235 Y80.12 E8.73725
G1 X84.871 Y80.061 E8.7492
G1 X85.191 Y80.052 E8.75519
G1 X85.33 Y80.05 E8.75779
G1 X95.612 Y80.049 E8.95016
G1 X114.205 Y80.05 E9.29801
G1 X114.277 Y80.051 E9.29936
G1 X114.964 Y80.061 E9.31221
G1 X115.591 Y80.11 E9.32398
G1 X116.207 Y80.238 E9.33575
G1 X116.801 Y80.443 E9.3475
G1 X117.365 Y80.722 E9.35928
G1 X117.889 Y81.07 E9.37104
G1 X118.364 Y81.482 E9.38281
G1 X118.784 Y81.951 E9.39459
G1 X119.14 Y82.469 E9.40635
G1 X119.428 Y83.028 E9.41811
G1 X119.643 Y83.619 E9.42988
G1 X119.781 Y84.233 E9.44165
G1 X119.841 Y84.892 E9.45403
G1 X119.864 Y85.857 E9.47209
G1 X119.865 Y85.96 E9.47402
G1 X119.948 Y114.174 E10.00187
G1 X119.948 Y114.245 E10.0032
G1 X119.94 Y114.946 E10.01631
G1 X119.893 Y115.574 E10.0281
G1 X119.766 Y116.19 E10.03986
G1 X119.563 Y116.785 E10.05163
G1 X119.286 Y117.35 E10.0634
G1 X118.818 Y118.029 E10.07883
G1 X118.736 Y118.129 E10.08125
G1 X118.307 Y118.589 E10.09301
G1 X117.823 Y118.991 E10.10478
G1 X117.292 Y119.328 E10.11655
G1 X116.723 Y119.595 E10.12831
G1 X116.124 Y119.788 E10.14008
G1 X115.506 Y119.904 E10.15185
G1 X114.997 Y119.939 E10.16139
G1 X114.439 Y119.949 E10.17183
G1 X114.35 Y119.95 E10.1735
G1 X85.707 Y119.95 E10.70938
G1 X85.636 Y119.949 E10.7107
G1 X84.938 Y119.939 E10.72376
G1 X84.311 Y119.891 E10.73553
G1 X83.695 Y119.762 E10.7473
G1 X83.101 Y119.557 E10.75906
G1 X82.537 Y119.278 E10.77083
G1 X82.013 Y118.93 E10.7826
G1 X81.538 Y118.519 E10.79435
G1 X81.118 Y118.05 E10.80613
G1 X80.761 Y117.532 E10.8179
G1 X80.473 Y116.973 E10.82967
G1 X80.259 Y116.382 E10.84143
G1 X80.121 Y115.768 E10.8532
G1 X80.061 Y115.124 E10.8653
G1 X80.052 Y114.792 E10.87151
G1 X80.05 Y114.658 E10.87402
G1 X80.05 Y85.674 E11.41628
G1 X80.051 Y85.6 E11.41766
G1 X80.061 Y84.935 E11.4301
G1 X80.11 Y84.308 E11.44187
G1 X80.238 Y83.692 E11.45364
G1 X80.444 Y83.097 E11.46542
G1 X80.723 Y82.534 E11.47718
G1 X81.072 Y82.01 E11.48896
G1 X81.484 Y81.535 E11.50072
G0 F3600 X81.778 Y81.666
G1 F1800 X82.243 Y81.272 E11.51212
G1 X82.755 Y80.942 E11.52352
G1 X83.307 Y80.682 E11.53493
G1 X83.887 Y80.497 E11.54632
G1 X84.487 Y80.388 E11.55773
G1 X84.879 Y80.361 E11.56508
G1 X85.199 Y80.352 E11.57107
G1 X85.33 Y80.35 E11.57352
G1 X95.612 Y80.349 E11.76589
G1 X114.205 Y80.35 E12.11374
G1 X114.273 Y80.35 E12.11501
G1 X114.96 Y80.36 E12.12787
G1 X115.567 Y80.409 E12.13926
G1 X116.163 Y80.537 E12.15067
G1 X116.738 Y80.742 E12.16209
G1 X117.28 Y81.02 E12.17348
G1 X117.781 Y81.367 E12.18488
G1 X118.233 Y81.776 E12.19629
G1 X118.628 Y82.241 E12.2077
G1 X118.958 Y82.753 E12.2191
G1 X119.218 Y83.304 E12.2305
G1 X119.404 Y83.885 E12.24191
G1 X119.512 Y84.485 E12.25332
G1 X119.541 Y84.899 E12.26108
G1 X119.564 Y85.864 E12.27914
G1 X119.565 Y85.961 E12.28096
G1 X119.648 Y114.175 E12.80881
G1 X119.648 Y114.242 E12.81006
G1 X119.64 Y114.943 E12.82318
G1 X119.593 Y115.551 E12.83459
G1 X119.467 Y116.147 E12.84598
G1 X119.264 Y116.722 E12.85739
G1 X118.987 Y117.265 E12.8688
G1 X118.586 Y117.838 E12.88188
G1 X118.504 Y117.938 E12.8843
G1 X118.087 Y118.383 E12.89571
G1 X117.616 Y118.77 E12.90712
G1 X117.098 Y119.092 E12.91853
G1 X116.543 Y119.343 E12.92992
G1 X115.959 Y119.52 E12.94134
G1 X115.358 Y119.618 E12.95273
G1 X114.991 Y119.639 E12.95961
G1 X114.433 Y119.649 E12.97005
G1 X114.35 Y119.65 E12.9716
G1 X85.64 Y119.65 E13.50873
G1 X84.942 Y119.64 E13.52179
G1 X84.335 Y119.591 E13.53319
G1 X83.739 Y119.463 E13.54459
G1 X83.164 Y119.259 E13.55601
G1 X82.622 Y118.981 E13.5674
G1 X82.12 Y118.634 E13.57882
G1 X81.669 Y118.225 E13.59021
G1 X81.274 Y117.76 E13.60162
G1 X80.944 Y117.248 E13.61302
G1 X80.683 Y116.697 E13.62443
G1 X80.497 Y116.116 E13.63584
G1 X80.389 Y115.516 E13.64725
G1 X80.361 Y115.116 E13.65475
G1 X80.352 Y114.784 E13.66096
G1 X80.35 Y114.658 E13.66332
G1 X80.35 Y85.674 E14.20558
G1 X80.351 Y85.604 E14.20689
G1 X80.361 Y84.939 E14.21933
G1 X80.41 Y84.331 E14.23074
G1 X80.538 Y83.736 E14.24213
G1 X80.743 Y83.161 E14.25355
G1 X81.021 Y82.619 E14.26494
G1 X81.368 Y82.118 E14.27635
G1 X81.778 Y81.666 E14.28776
G0 F3600 X82.071 Y81.802
G1 F1800 X82.531 Y81.434 E14.29878
G1 X83.037 Y81.132 E14.30981
G1 X83.58 Y80.901 E14.32085
G1 X84.148 Y80.745 E14.33187
G1 X84.888 Y80.661 E14.3458
G1 X85.208 Y80.652 E14.35179
G1 X85.33 Y80.65 E14.35407
G1 X95.612 Y80.649 E14.54644
G1 X114.205 Y80.65 E14.89429
G1 X114.268 Y80.65 E14.89547
G1 X114.955 Y80.66 E14.90832
G1 X115.543 Y80.709 E14.91936
G1 X116.119 Y80.836 E14.9304
G1 X116.672 Y81.041 E14.94143
G1 X117.192 Y81.318 E14.95246
G1 X117.67 Y81.663 E14.96348
G1 X118.097 Y82.069 E14.97451
G1 X118.465 Y82.53 E14.98554
G1 X118.768 Y83.036 E14.99658
G1 X118.999 Y83.578 E15.0076
G1 X119.155 Y84.146 E15.01862
G1 X119.241 Y84.906 E15.03293
G1 X119.264 Y85.871 E15.05099
G1 X119.265 Y85.962 E15.05269
G1 X119.348 Y114.176 E15.58054
G1 X119.348 Y114.239 E15.58172
G1 X119.34 Y114.94 E15.59484
G1 X119.293 Y115.527 E15.60586
G1 X119.167 Y116.103 E15.61689
G1 X118.965 Y116.657 E15.62792
G1 X118.689 Y117.178 E15.63895
G1 X118.354 Y117.648 E15.64975
G1 X118.272 Y117.748 E15.65217
G1 X117.868 Y118.178 E15.66321
G1 X117.41 Y118.549 E15.67423
G1 X116.905 Y118.854 E15.68527
G1 X116.365 Y119.089 E15.69629
G1 X115.797 Y119.248 E15.70732
G1 X114.986 Y119.339 E15.72259
G1 X114.428 Y119.349 E15.73303
G1 X114.35 Y119.35 E15.73449
G1 X85.645 Y119.35 E16.27153
G1 X84.947 Y119.34 E16.28459
G1 X84.359 Y119.291 E16.29563
G1 X83.783 Y119.164 E16.30666
G1 X83.23 Y118.96 E16.31769
G1 X82.71 Y118.683 E16.32871
G1 X82.232 Y118.338 E16.33974
G1 X81.804 Y117.932 E16.35078
G1 X81.436 Y117.471 E16.36182
G1 X81.133 Y116.965 E16.37285
G1 X80.902 Y116.423 E16.38387
G1 X80.746 Y115.855 E16.39489
G1 X80.661 Y115.108 E16.40896
G1 X80.652 Y114.776 E16.41517
G1 X80.65 Y114.658 E16.41738
G1 X80.65 Y85.609 E16.96085
G1 X80.66 Y84.944 E16.97329
G1 X80.709 Y84.356 E16.98433
G1 X80.837 Y83.78 E16.99537
G1 X81.042 Y83.227 E17.00641
G1 X81.319 Y82.707 E17.01743
G1 X81.664 Y82.229 E17.02846
G1 X82.071 Y81.802 E17.03949
G0 F3600 X82.363 Y81.944
G1 F1800 X82.819 Y81.603 E17.05015
G1 X83.317 Y81.33 E17.06077
G1 X83.85 Y81.129 E17.07143
G1 X84.405 Y81.004 E17.08207
G1 X84.896 Y80.961 E17.09129
G1 X85.216 Y80.952 E17.09728
G1 X85.33 Y80.95 E17.09942
G1 X95.612 Y80.949 E17.29178
G1 X114.205 Y80.95 E17.63963
G1 X114.264 Y80.95 E17.64074
G1 X114.951 Y80.96 E17.65359
G1 X115.518 Y81.009 E17.66424
G1 X116.072 Y81.136 E17.67487
G1 X116.603 Y81.339 E17.68551
G1 X117.101 Y81.615 E17.69616
G1 X117.555 Y81.958 E17.70681
G1 X117.956 Y82.362 E17.71746
G1 X118.297 Y82.817 E17.72809
G1 X118.571 Y83.316 E17.73874
G1 X118.772 Y83.848 E17.74938
G1 X118.896 Y84.403 E17.76002
G1 X118.941 Y84.913 E17.7696
G1 X118.964 Y85.878 E17.78766
G1 X118.965 Y85.963 E17.78925
G1 X119.048 Y114.177 E18.3171
G1 X119.048 Y114.235 E18.31819
G1 X119.04 Y114.936 E18.33131
G1 X118.993 Y115.503 E18.34195
G1 X118.868 Y116.058 E18.35259
G1 X118.666 Y116.59 E18.36324
G1 X118.392 Y117.088 E18.37387
G1 X118.122 Y117.458 E18.38244
G1 X118.04 Y117.558 E18.38486
G1 X117.649 Y117.971 E18.3955
G1 X117.204 Y118.326 E18.40615
G1 X116.714 Y118.615 E18.4168
G1 X116.188 Y118.832 E18.42744
G1 X115.637 Y118.974 E18.43809
G1 X114.981 Y119.039 E18.45042
G1 X114.423 Y119.049 E18.46086
G1 X114.35 Y119.05 E18.46223
G1 X85.649 Y119.05 E18.99919
G1 X84.951 Y119.04 E19.01225
G1 X84.384 Y118.992 E19.0229
G1 X83.83 Y118.864 E19.03353
G1 X83.298 Y118.661 E19.04419
G1 X82.801 Y118.385 E19.05482
G1 X82.347 Y118.042 E19.06547
G1 X81.946 Y117.639 E19.0761
G1 X81.605 Y117.184 E19.08674
G1 X81.331 Y116.685 E19.09739
G1 X81.13 Y116.153 E19.10803
G1 X81.005 Y115.598 E19.11868
G1 X80.96 Y115.1 E19.12803
G1 X80.951 Y114.768 E19.13424
G1 X80.95 Y114.658 E19.1363
G1 X80.95 Y85.613 E19.6797
G1 X80.96 Y84.948 E19.69214
G1 X81.009 Y84.381 E19.70279
G1 X81.136 Y83.827 E19.71342
G1 X81.34 Y83.296 E19.72407
G1 X81.616 Y82.799 E19.7347
G1 X81.96 Y82.345 E19.74536
G1 X82.363 Y81.944 E19.75599
G0 F3600 X82.654 Y82.091
G1 F1800 X83.104 Y81.779 E19.76624
G1 X83.595 Y81.536 E19.77649
G1 X84.115 Y81.367 E19.78672
G1 X84.905 Y81.26 E19.80163
G1 X85.225 Y81.251 E19.80762
G1 X85.33 Y81.25 E19.80959
G1 X95.612 Y81.249 E20.00195
G1 X114.205 Y81.25 E20.3498
G1 X114.26 Y81.25 E20.35083
G1 X114.947 Y81.26 E20.36369
G1 X115.492 Y81.308 E20.37392
G1 X116.024 Y81.435 E20.38416
G1 X116.533 Y81.638 E20.39441
G1 X117.006 Y81.913 E20.40464
G1 X117.434 Y82.253 E20.41487
G1 X117.809 Y82.653 E20.42513
G1 X118.121 Y83.103 E20.43537
G1 X118.364 Y83.593 E20.44561
G1 X118.533 Y84.113 E20.45584
G1 X118.641 Y84.921 E20.47109
G1 X118.664 Y85.886 E20.48915
G1 X118.665 Y85.964 E20.49061
